X:204
T:Down the Burn and Through the Mead. VWMLa.204
%%VWML:Anon2-3049-p127-0
F:http://www.vwml.org/record/Anon2/3049/p127
S:Anon. MS, late 18thC, Vaughan Williams Mem. Library
O:England;Yorkshire
Z:vmp/efdss.Simon Wilson. Reviewed PJH 2008.
M:C
L:1/8
Q:2/4=60
K:D
(AF)(Ad)d2ef|(AF)(Ad)d2(eg)|\
gfedB2(cd)|(A<F)(E>D){D}E4|\
(AF)(Ad)d2ef|AFAdd2(ef)|\
(gf)(ed)B2(cd)|(A<F)(E>F)D2z2|
f2f2(ec)(BA)|A^G Bd{d}c4|\
d>Bd>Be2{fed}cz|d>Bd>Be2{fed}cz|\
g>d^g>e(a2g/f/e/d/)|c2B2!fermata!A2z2|\
(AF)(Ad)d2(ef)|(AF)(Ad)d2(ef)|
gfedB2(cd)|(A<F)(E>D){D}E4|d>ef>dB2B2|\
e<fg>e{d}c3A|(de)(fg) (ab)(c'!fermata!d')|a<fe>fd2z2|]
